lib/logo_tmp/nrk-logo-nrk-p1-pluss-title-below.svg

<svg width="40" height="36" viewBox="0 0 40 36" fill="none" xmlns="http://www.w3.org/2000/svg">
<path d="M0 15.0033V1.00459H4.59339V15.0033H0ZM10.8428 3.23256L13.4844 15.0033H8.45737L5.30307 1.00459H8.12254C8.76907 0.996197 9.39641 1.22411 9.88691 1.64544C10.3782 2.04909 10.7158 2.60946 10.8428 3.23256ZM14.1744 15.0033V1.00459H18.7678V15.0033H14.1744ZM22.2372 6.3281C21.7422 6.33292 21.2552 6.20342 20.828 5.95344C20.4064 5.70979 20.0563 5.3596 19.8127 4.93801C19.5624 4.5107 19.4329 4.02354 19.4378 3.52835C19.4321 3.03619 19.5618 2.55193 19.8127 2.12848C20.0589 1.71147 20.4086 1.36509 20.828 1.12292C21.2553 0.873236 21.7423 0.74375 22.2372 0.748264C22.7292 0.742965 23.2133 0.872567 23.6369 1.12292C24.0521 1.36721 24.3981 1.7133 24.6424 2.12848C24.893 2.55204 25.0226 3.03623 25.0172 3.52835C25.0218 4.0235 24.8923 4.51058 24.6424 4.93801C24.4007 5.35775 24.0542 5.70764 23.6369 5.95344C23.2133 6.20429 22.7289 6.33392 22.2366 6.3281H22.2372ZM25.7269 15.0033V1.00459H30.3207V15.0033H25.7269ZM36.136 8.65459C36.1489 8.66817 36.2475 8.82918 36.4317 9.13763C36.6159 9.44609 36.8558 9.84045 37.1513 10.3207C37.447 10.8006 37.759 11.3099 38.0874 11.8486C38.4157 12.3873 38.7247 12.8967 39.0143 13.3767C39.3028 13.8567 39.6313 14.3989 40 15.0033H34.9531C34.6375 14.4907 34.3515 14.0274 34.0952 13.6133C33.8389 13.1993 33.5665 12.7523 33.2778 12.2726C32.9884 11.7932 32.7024 11.3266 32.4196 10.8727C32.1368 10.4188 31.8938 10.0212 31.6905 9.67988C31.4863 9.33835 31.3449 9.10829 31.2663 8.98977C31.0713 8.69567 30.9559 8.35599 30.9315 8.00395C30.951 7.66607 31.0597 7.33946 31.2466 7.05728C31.3254 6.92583 31.47 6.69248 31.6803 6.3573C31.8906 6.02212 32.137 5.62454 32.4196 5.16449C32.7021 4.70444 32.9882 4.23452 33.2778 3.75475C33.5674 3.27499 33.8398 2.82476 34.0952 2.40414C34.3519 1.98396 34.6379 1.51733 34.9531 1.00427H40L36.0962 7.37273C35.9754 7.56181 35.9073 7.77972 35.8991 8.00395C35.9121 8.23936 35.9942 8.46569 36.1353 8.65459H36.136Z" fill="white"/>
<path d="M9.49055 22.8176C9.24853 22.4437 8.93783 22.1193 8.57496 21.8614C8.1705 21.5778 7.72116 21.3645 7.24588 21.2305C6.66894 21.071 6.07227 20.9948 5.47383 21.0041H0V35.0027H2.06745V29.975H5.63134C6.43573 29.9873 7.22954 29.7903 7.93505 29.4032C8.61121 29.0283 9.17272 28.4763 9.55945 27.8062C9.97398 27.0668 10.1815 26.2291 10.16 25.3814C10.1617 24.9231 10.1089 24.4663 10.0025 24.0206C9.90012 23.5938 9.72706 23.1872 9.49055 22.8176ZM7.65937 27.0665C7.39464 27.4822 7.00522 27.8033 6.54693 27.9836C5.99056 28.1943 5.39864 28.2947 4.80404 28.2794H2.06745V22.7194H5.08005C5.65548 22.6975 6.22816 22.8088 6.75363 23.0447C7.17164 23.2471 7.51339 23.5789 7.72827 23.9911C7.95583 24.4534 8.06734 24.9644 8.05315 25.4797C8.07571 26.0354 7.93909 26.586 7.65937 27.0665Z" fill="white"/>
<path d="M14.3634 21.4673C14.0812 21.6185 13.8056 21.7597 13.5367 21.8909C13.2679 22.0222 12.9955 22.1536 12.7196 22.2852C12.444 22.4167 12.1618 22.5353 11.873 22.6402C11.5842 22.745 11.2754 22.8508 10.9472 22.9556L11.3808 24.6315C11.7746 24.5132 12.1322 24.3949 12.4535 24.2766C12.7686 24.1613 13.0775 24.0297 13.3789 23.8823C13.6747 23.7381 13.97 23.5805 14.2649 23.4094L14.2748 23.4035V35.0033H16.3222V21.0047H15.2593C14.944 21.1617 14.6454 21.316 14.3634 21.4673Z" fill="white"/>
<path d="M24.3363 27.2341V23.2517H22.6036V27.2341H18.6066V28.7917H22.6036V32.755H24.3363V28.7917H28.3333V27.2341H24.3363Z" fill="white"/>
</svg>

<svg xmlns="http://www.w3.org/2000/svg" viewBox="0 0 40 36"><path fill="#fff" d="M0 15.003V1.005h4.593v13.998H0Zm10.843-11.77 2.641 11.77H8.457L5.303 1.005h2.82a2.655 2.655 0 0 1 1.764.64c.491.404.829.964.956 1.588Zm3.331 11.77V1.005h4.594v13.998h-4.594Zm8.063-8.675a2.737 2.737 0 0 1-1.409-.375 2.778 2.778 0 0 1-1.015-1.015 2.735 2.735 0 0 1-.375-1.41 2.685 2.685 0 0 1 .375-1.4 2.812 2.812 0 0 1 3.824-1.005c.415.244.761.59 1.005 1.005.251.424.38.908.375 1.4.005.496-.125.983-.375 1.41a2.8 2.8 0 0 1-1.005 1.015c-.424.251-.908.38-1.4.375Zm3.49 8.675V1.005h4.594v13.998h-4.594Zm10.409-6.348c.013.013.111.174.296.483.184.308.424.702.72 1.183a377.185 377.185 0 0 1 1.862 3.056c.289.48.617 1.022.986 1.626h-5.047l-.858-1.39c-.256-.414-.529-.86-.817-1.34-.29-.48-.576-.946-.858-1.4a71.06 71.06 0 0 1-.73-1.193 21.112 21.112 0 0 0-.424-.69 2.04 2.04 0 0 1-.334-.986c.019-.338.128-.665.315-.947.078-.131.223-.365.433-.7a216.7 216.7 0 0 0 1.598-2.603l.817-1.35.858-1.4H40l-3.904 6.369c-.12.189-.189.407-.197.63.013.236.095.463.236.652h.001ZM9.49 22.818a3.519 3.519 0 0 0-.915-.957 4.39 4.39 0 0 0-1.33-.63 6.284 6.284 0 0 0-1.771-.227H0v13.999h2.067v-5.028h3.564a4.641 4.641 0 0 0 2.304-.572 4.261 4.261 0 0 0 1.624-1.597c.415-.74.623-1.577.601-2.425a5.768 5.768 0 0 0-.158-1.36 3.935 3.935 0 0 0-.511-1.203Zm-1.83 4.248a2.33 2.33 0 0 1-1.113.918 4.588 4.588 0 0 1-1.743.295H2.067v-5.56H5.08a3.739 3.739 0 0 1 1.674.326c.418.202.76.534.974.946.228.462.34.973.325 1.489a2.919 2.919 0 0 1-.394 1.587ZM14.363 21.467c-.282.152-.557.293-.826.424a97.45 97.45 0 0 1-.817.394c-.276.132-.558.25-.847.355-.289.105-.598.21-.926.316l.434 1.675c.394-.118.751-.236 1.072-.354a9.67 9.67 0 0 0 .926-.395c.296-.144.591-.302.886-.473l.01-.005v11.6h2.047v-14H15.26c-.315.158-.614.312-.896.463ZM24.336 27.234v-3.982h-1.732v3.982h-3.997v1.558h3.997v3.963h1.732v-3.963h3.997v-1.558h-3.997Z"/></svg>
